X:248
T:Big Leaf Reel
M:4/4
L:1/8
C:Frederick E. Wilson copyright 2005
K:ADor
"Ami"a3 g edeg|a2 bg "G"ageg|"Ami"a3 g edeg|"F"c'bac' "G"bage|
"Ami"a3 g edeg|a2 bg aged|"F"cdec "G"dcAd||1"Ami"cA3 "Emi"efge:|2 "Ami"c
A3 "Emi"efgf||
"Ami"eA3 eA"G"dA|"Ami"eA3 eA"G"dA|"Ami"eA3 "G"gA3|gfgb agfd|
1 "Ami"eA3 eA"G"dA|"Ami"eA3 gA"F"fA|"G"edef gfga|"Emi"bagf edBG:|
2 "Ami"eA3 eA"G"dA|"Emi"eB3 "G"dBGB|"Ami"A2 BG "G"AGEG|"F"(3EFG)(3ABc) "
G"(3def) ge||
